X:89
T:Johnny, Come Down To Hilo
M:2/4
L:1/16
Q:1/4=110
K:D
d4|\
BBBB A2d2|B2B2 A2dc|B2A2 FFDE|F2D2 B,2A,2|
DDD2 D3F |B2 A4  G2|F4 E4|D6 d2|
B2 A4 d2 |B2 A4  d2|B2A2 F2DE|F2D2 B,2A,2|
DDD2 D3F |B2 A4  G2|F4 E4|D4||
